X:24
T:RVW2/2/23 Sweet Primeroses
C:Sung in the "Bell"
L:1/8
Q:1/4=80
M:3/4
I:linebreak $
K:G
"^(Editorial suggestion)  " D | GF G2 AB | cA F D2 B | ce dc G>E | FG A3 B |$ ce d2 GA | 
BA G D2 G | FD GB dc | BA G3 |] 



